assets/images/icons/step-01.svg

<svg width="56" height="56" viewBox="0 0 56 56" fill="none" xmlns="http://www.w3.org/2000/svg">
<g clip-path="url(#clip0_379_9074)">
<path d="M0.390522 40.5331C-0.103085 36.3161 -0.17165 32.178 0.434109 28.4341C1.17897 23.8305 3.12363 18.709 5.24814 14.1288C9.40035 5.17719 16.8334 2.04549 25.8846 0.633614C38.5012 -1.33441 55.8901 0.633659 56 15.9025C55.367 21.3628 51.1904 36.5426 37.0915 37.7009C32.4298 38.0839 30.6859 42.7662 28.6321 48.1261C23.2276 62.2304 2.19757 55.9711 0.390522 40.5331Z" fill="#E0E9E6"/>
<g clip-path="url(#clip1_379_9074)">
<path d="M21.4195 41.6169C22.5521 41.6169 23.4702 40.6988 23.4702 39.5662C23.4702 38.4335 22.5521 37.5154 21.4195 37.5154C20.2868 37.5154 19.3687 38.4335 19.3687 39.5662C19.3687 40.6988 20.2868 41.6169 21.4195 41.6169Z" fill="#7FB51F"/>
<path d="M42.6921 10.7839C41.8397 9.93065 40.7061 9.46069 39.5001 9.46069H38.6834V11.1013C38.6834 12.9106 37.2114 14.3826 35.4021 14.3826H20.6365C18.8272 14.3826 17.3553 12.9106 17.3553 11.1013V9.46069H16.5313C14.0464 9.46069 12.0224 11.4824 12.0196 13.9674L11.9859 44.483C11.9846 45.6891 12.4532 46.8232 13.3055 47.6765C14.1578 48.5298 15.2915 48.9998 16.4975 48.9998H39.4663C41.9513 48.9998 43.9753 46.978 43.978 44.493L44.0118 13.9774C44.0131 12.7713 43.5445 11.6371 42.6921 10.7839ZM16.9077 39.5662C16.9077 37.0784 18.9317 35.0544 21.4194 35.0544C23.9072 35.0544 25.9311 37.0784 25.9311 39.5662C25.9311 42.0539 23.9072 44.0779 21.4194 44.0779C18.9317 44.0779 16.9077 42.0539 16.9077 39.5662ZM31.1888 19.4008C30.7083 18.9204 30.7083 18.1412 31.1888 17.6607C31.6693 17.1802 32.4484 17.1802 32.929 17.6607L34.9592 19.6909L36.9894 17.6607C37.4698 17.1802 38.2489 17.1802 38.7295 17.6607C39.21 18.1412 39.21 18.9203 38.7295 19.4008L36.6993 21.431L38.7295 23.4612C39.21 23.9417 39.21 24.7208 38.7295 25.2013C38.4892 25.4416 38.1743 25.5618 37.8595 25.5618C37.5446 25.5618 37.2296 25.4416 36.9894 25.2013L34.9592 23.1712L32.9291 25.2013C32.6888 25.4416 32.3739 25.5618 32.059 25.5618C31.7442 25.5618 31.4292 25.4416 31.189 25.2013C30.7085 24.7209 30.7085 23.9418 31.189 23.4612L33.2192 21.431L31.1888 19.4008ZM20.2028 18.0478C20.6833 17.5673 21.4624 17.5673 21.9429 18.0478L24.8535 20.9584C25.334 21.4388 25.334 22.2179 24.8535 22.6985C24.6132 22.9388 24.2983 23.0589 23.9835 23.0589C23.6686 23.0589 23.3536 22.9388 23.1134 22.6985L22.31 21.8951V26.1448C22.31 27.6677 23.2666 29.0544 24.6902 29.5954L31.8421 32.3131C34.2148 33.2147 35.8089 35.526 35.8089 38.0642V42.8474C35.8089 43.527 35.258 44.0779 34.5785 44.0779C33.8989 44.0779 33.348 43.527 33.348 42.8474V38.0642C33.348 36.5413 32.3915 35.1545 30.9679 34.6135L23.816 31.8958C21.4433 30.9942 19.8491 28.683 19.8491 26.1448V21.8818L19.0457 22.6852C18.5652 23.1657 17.7861 23.1657 17.3055 22.6852C16.825 22.2047 16.825 21.4256 17.3055 20.9451L20.2028 18.0478Z" fill="#7FB51F"/>
<path d="M19.8169 11.1013C19.8169 11.5544 20.1841 11.9216 20.6372 11.9216H35.4028C35.8559 11.9216 36.2231 11.5544 36.2231 11.1013V7.82007C36.2231 7.36701 35.8559 6.99976 35.4028 6.99976H20.6372C20.1841 6.99976 19.8169 7.36701 19.8169 7.82007V11.1013Z" fill="#7FB51F"/>
</g>
</g>
<defs>
<clipPath id="clip0_379_9074">
<rect width="56" height="56" fill="white"/>
</clipPath>
<clipPath id="clip1_379_9074">
<rect width="42" height="42" fill="white" transform="translate(6.99988 6.99976)"/>
</clipPath>
</defs>
</svg>

<svg xmlns="http://www.w3.org/2000/svg" width="56" height="56" fill="none"><g clip-path="url(#a)"><path fill="#E0E9E6" d="M.39 40.533c-.493-4.217-.562-8.355.044-12.099.745-4.603 2.69-9.725 4.814-14.305C9.4 5.177 16.833 2.045 25.885.634 38.5-1.334 55.89.634 56 15.903c-.633 5.46-4.81 20.64-18.908 21.798-4.662.383-6.406 5.065-8.46 10.425C23.228 62.23 2.198 55.971.391 40.533"/><g fill="#7FB51F" clip-path="url(#b)"><path d="M21.42 41.617a2.05 2.05 0 1 0 0-4.101 2.05 2.05 0 0 0 0 4.1"/><path d="M42.692 10.784A4.48 4.48 0 0 0 39.5 9.46h-.817v1.64a3.285 3.285 0 0 1-3.28 3.282H20.636a3.285 3.285 0 0 1-3.282-3.282V9.46h-.824a4.52 4.52 0 0 0-4.511 4.506l-.034 30.516a4.48 4.48 0 0 0 1.32 3.194A4.48 4.48 0 0 0 16.497 49h22.97a4.52 4.52 0 0 0 4.511-4.507l.034-30.516a4.48 4.48 0 0 0-1.32-3.193M16.908 39.566a4.517 4.517 0 0 1 4.511-4.512 4.517 4.517 0 0 1 4.512 4.512 4.517 4.517 0 0 1-4.512 4.512 4.517 4.517 0 0 1-4.511-4.512m14.28-20.165a1.23 1.23 0 1 1 1.741-1.74l2.03 2.03 2.03-2.03a1.23 1.23 0 0 1 1.74 1.74l-2.03 2.03 2.03 2.03a1.23 1.23 0 0 1-1.74 1.74l-2.03-2.03-2.03 2.03a1.227 1.227 0 0 1-1.74 0 1.23 1.23 0 0 1 0-1.74l2.03-2.03zm-10.985-1.353a1.23 1.23 0 0 1 1.74 0l2.91 2.91a1.23 1.23 0 0 1-1.74 1.74l-.803-.803v4.25a3.71 3.71 0 0 0 2.38 3.45l7.152 2.718a6.185 6.185 0 0 1 3.967 5.751v4.783a1.23 1.23 0 1 1-2.461 0v-4.783c0-1.523-.956-2.91-2.38-3.45l-7.152-2.718a6.185 6.185 0 0 1-3.967-5.751v-4.263l-.803.803a1.23 1.23 0 0 1-1.74-1.74z"/><path d="M19.817 11.101c0 .453.367.82.82.82h14.766a.82.82 0 0 0 .82-.82v-3.28a.82.82 0 0 0-.82-.821H20.637a.82.82 0 0 0-.82.82z"/></g></g><defs><clipPath id="a"><path fill="#fff" d="M0 0h56v56H0z"/></clipPath><clipPath id="b"><path fill="#fff" d="M7 7h42v42H7z"/></clipPath></defs></svg>
